svg/blobs-icons/no-decorations/bottle.svg

<svg xmlns="http://www.w3.org/2000/svg" xmlns:xlink="http://www.w3.org/1999/xlink" preserveAspectRatio="xMidYMid" width="69" height="217" viewBox="0 0 69 217"><defs><style>.cls-3{fill:#142a3b}.cls-4{fill:#010101;opacity:.35}.cls-5{fill:#fbb713}.cls-7{fill:#fff}</style></defs><g id="group-145svg"><path d="M24.415-.009c4.534.0 12.554.144 18.652.144 3.832.0 4.536 3.478 4.536 3.478s0 40.785.0 53.312C47.603 64.025 49.702 64.999 51.265 66.116c2.069 1.467 7.684 3.047 10.278 4.172C69.569 73.775 68.697 82.123 68.697 82.123S68.64 190.092 68.64 210.138C68.64 214.872 66.422 216.872 62.587 216.872 45.162 216.872 24.815 216.728 8.3 216.728 4.289 216.728.011 216.451.011 210.883c0-24.776.0-129.172.0-129.172S.121 73.498 7.859 70.016C14.655 66.948 13.968 67.509 16.92 65.698 20.15 63.725 20.233 62.498 20.233 57.064 20.233 25.315 20.06 6.959 20.06 3.613c0-1.949 2.66-3.622 4.355-3.622z" id="path-1" class="cls-3" fill-rule="evenodd"/><path d="M61.543 70.288c-2.594-1.125-8.209-2.705-10.278-4.172C49.702 64.999 47.603 64.025 47.603 56.925c0-12.527.0-53.312.0-53.312S46.9.135 43.067.135c-6.098.0-14.118-.144-18.652-.144-1.696.0-4.355 1.673-4.355 3.622C20.06 3.711 20.061 3.867 20.061 3.993 23.755 4.033 27.796 4.078 31.237 4.078c3.833.0 4.537 3.477 4.537 3.477s0 40.784.0 53.313C35.774 67.969 37.872 68.943 39.435 70.059c2.07 1.468 7.685 3.048 10.278 4.173 8.026 3.485 7.155 11.834 7.155 11.834S56.81 194.033 56.81 214.08C56.81 215.152 56.682 216.066 56.462 216.866 58.532 216.869 60.583 216.872 62.587 216.872 66.422 216.872 68.64 214.872 68.64 210.138 68.64 190.091 68.697 82.123 68.697 82.123s.872-8.348-7.154-11.835z" id="path-2" class="cls-4" fill-rule="evenodd"/><path d="M47.263 22.749s-26.502.0-26.502.0.0-7.228.0-7.228 26.502.0 26.502.0.0 7.228.0 7.228z" id="path-3" class="cls-5" fill-rule="evenodd"/><path d="M59.862 168.465C59.862 169.975 58.679 171.196 57.244 171.196H12.091C10.652 171.196 9.488 169.975 9.488 168.465V108.443C9.488 106.936 10.652 105.715 12.091 105.715H57.244c1.435.0 2.618 1.221 2.618 2.72799999999999v60.022z" id="path-4" class="cls-5" fill-rule="evenodd"/><path d="M9.488 101.324c-1.996.0-3.614-1.619-3.614-3.615.0-19.396 12.676-26.833 19.377-28.055C27.235 69.304 29.097 70.598 29.457 72.56 29.814 74.518 28.523 76.39 26.573 76.759 25.961 76.884 13.103 79.694 13.103 97.709c0 1.996-1.619 3.615-3.615 3.615z" id="path-5" class="cls-7" fill-rule="evenodd"/></g></svg>

<svg xmlns="http://www.w3.org/2000/svg" xmlns:xlink="http://www.w3.org/1999/xlink" preserveAspectRatio="xMidYMid" width="69" height="217" viewBox="0 0 69 217">
  <defs>
    <style>

      .cls-3 {
        fill: #142a3b;
      }

      .cls-4 {
        fill: #010101;
        opacity: 0.35;
      }

      .cls-5 {
        fill: #fbb713;
      }

      .cls-7 {
        fill: #ffffff;
      }
    </style>
  </defs>
  <g id="group-145svg">
    <path d="M24.415,-0.009 C28.949,-0.009 36.969,0.135 43.067,0.135 C46.899,0.135 47.603,3.613 47.603,3.613 C47.603,3.613 47.603,44.398 47.603,56.925 C47.603,64.025 49.702,64.999 51.265,66.116 C53.334,67.583 58.949,69.163 61.543,70.288 C69.569,73.775 68.697,82.123 68.697,82.123 C68.697,82.123 68.640,190.092 68.640,210.138 C68.640,214.872 66.422,216.872 62.587,216.872 C45.162,216.872 24.815,216.728 8.300,216.728 C4.289,216.728 0.011,216.451 0.011,210.883 C0.011,186.107 0.011,81.711 0.011,81.711 C0.011,81.711 0.121,73.498 7.859,70.016 C14.655,66.948 13.968,67.509 16.920,65.698 C20.150,63.725 20.233,62.498 20.233,57.064 C20.233,25.315 20.060,6.959 20.060,3.613 C20.060,1.664 22.720,-0.009 24.415,-0.009 Z" id="path-1" class="cls-3" fill-rule="evenodd"/>
    <path d="M61.543,70.288 C58.949,69.163 53.334,67.583 51.265,66.116 C49.702,64.999 47.603,64.025 47.603,56.925 C47.603,44.398 47.603,3.613 47.603,3.613 C47.603,3.613 46.900,0.135 43.067,0.135 C36.969,0.135 28.949,-0.009 24.415,-0.009 C22.719,-0.009 20.060,1.664 20.060,3.613 C20.060,3.711 20.061,3.867 20.061,3.993 C23.755,4.033 27.796,4.078 31.237,4.078 C35.070,4.078 35.774,7.555 35.774,7.555 C35.774,7.555 35.774,48.339 35.774,60.868 C35.774,67.969 37.872,68.943 39.435,70.059 C41.505,71.527 47.120,73.107 49.713,74.232 C57.739,77.717 56.868,86.066 56.868,86.066 C56.868,86.066 56.810,194.033 56.810,214.080 C56.810,215.152 56.682,216.066 56.462,216.866 C58.532,216.869 60.583,216.872 62.587,216.872 C66.422,216.872 68.640,214.872 68.640,210.138 C68.640,190.091 68.697,82.123 68.697,82.123 C68.697,82.123 69.569,73.775 61.543,70.288 Z" id="path-2" class="cls-4" fill-rule="evenodd"/>
    <path d="M47.263,22.749 C47.263,22.749 20.761,22.749 20.761,22.749 C20.761,22.749 20.761,15.521 20.761,15.521 C20.761,15.521 47.263,15.521 47.263,15.521 C47.263,15.521 47.263,22.749 47.263,22.749 Z" id="path-3" class="cls-5" fill-rule="evenodd"/>
    <path d="M59.862,168.465 C59.862,169.975 58.679,171.196 57.244,171.196 C57.244,171.196 12.091,171.196 12.091,171.196 C10.652,171.196 9.488,169.975 9.488,168.465 C9.488,168.465 9.488,108.443 9.488,108.443 C9.488,106.936 10.652,105.715 12.091,105.715 C12.091,105.715 57.244,105.715 57.244,105.715 C58.679,105.715 59.862,106.936 59.862,108.443 C59.862,108.443 59.862,168.465 59.862,168.465 Z" id="path-4" class="cls-5" fill-rule="evenodd"/>
    <path d="M9.488,101.324 C7.492,101.324 5.874,99.705 5.874,97.709 C5.874,78.313 18.550,70.876 25.251,69.654 C27.235,69.304 29.097,70.598 29.457,72.560 C29.814,74.518 28.523,76.390 26.573,76.759 C25.961,76.884 13.103,79.694 13.103,97.709 C13.103,99.705 11.484,101.324 9.488,101.324 Z" id="path-5" class="cls-7" fill-rule="evenodd"/>
  </g>
</svg>
